X: 22789
T: Lanigan's Ball
R: jig
M: 6/8
K: Eminor
|:E2F G2A|B2^A B^cd|D2E F2G|AdB AFD|
E2F G2A|B2^A B^cd|edB cBA|1 BGE E2F:|2 BGE E2B||
|:e2f g2e|fag fe^d|e2f g2e|fdB B2B|
e2f g2e|fag fe^d|edB cBA|1 BGE E2B:|2 BGE E2F||

